icons/tools-17.svg

<svg width="16" height="17" viewBox="0 0 16 17" fill="none" xmlns="http://www.w3.org/2000/svg">
<path fill-rule="evenodd" clip-rule="evenodd" d="M5.90419 3.39412C5.9026 3.3951 5.90077 3.3963 5.89869 3.39774C4.94699 4.06281 4.32655 5.16465 4.32655 6.41132C4.32655 7.71562 5.00586 8.86168 6.03287 9.51435C6.45539 9.78284 6.79071 10.2681 6.76869 10.8536L6.76843 10.8605L6.63526 13.5841C6.61875 13.9218 6.33159 14.1822 5.99385 14.1656C5.65612 14.1491 5.39572 13.862 5.41223 13.5242L5.54512 10.8055C5.54677 10.7367 5.50478 10.6296 5.37611 10.5478C4.01045 9.67998 3.10205 8.15192 3.10205 6.41132C3.10205 4.74789 3.93183 3.27835 5.19729 2.39404C5.6456 2.08076 6.17108 2.11092 6.56309 2.36197C6.9401 2.60343 7.1837 3.03714 7.1837 3.5238V5.82508C7.1837 5.89268 7.2172 5.95592 7.27313 5.9939L7.88538 6.40969C7.95459 6.4567 8.04548 6.4567 8.11469 6.40969L8.72694 5.9939C8.78287 5.95592 8.81637 5.89269 8.81637 5.82508V3.5238C8.81637 3.03714 9.05997 2.60343 9.43698 2.36197C9.82902 2.11092 10.3545 2.08076 10.8027 2.39404C12.0682 3.27835 12.898 4.74789 12.898 6.41132C12.898 8.15192 11.9896 9.67998 10.624 10.5478C10.4953 10.6296 10.4533 10.7367 10.455 10.8055L10.5878 13.5242C10.6044 13.862 10.344 14.1491 10.0062 14.1656C9.66845 14.1822 9.38132 13.9218 9.36481 13.5841L9.23135 10.8536C9.20932 10.2681 9.54468 9.78284 9.96723 9.51435C10.9943 8.86168 11.6735 7.71562 11.6735 6.41132C11.6735 5.16465 11.0531 4.06281 10.1014 3.39774C10.0993 3.3963 10.0975 3.3951 10.0959 3.39412C10.0763 3.40757 10.0409 3.44898 10.0409 3.5238V5.82508C10.0409 6.29838 9.80641 6.74097 9.41487 7.00689L8.80263 7.42268C8.31815 7.7517 7.68192 7.7517 7.19744 7.42268L6.5852 7.00689C6.19363 6.74097 5.95921 6.29838 5.95921 5.82508V3.5238C5.95921 3.44898 5.92381 3.40757 5.90419 3.39412ZM5.91251 3.38981C5.91292 3.38969 5.91251 3.38982 5.91251 3.38981V3.38981Z" fill="#272431"/>
</svg>

<svg xmlns="http://www.w3.org/2000/svg" width="16" height="17" viewBox="0 0 16 17"><path fill-rule="evenodd" d="M5.904 3.394a3.669 3.669 0 00-1.578 3.017c0 1.305.68 2.45 1.707 3.103.422.269.758.754.736 1.34v.007l-.134 2.723a.612.612 0 11-1.223-.06l.133-2.718c.002-.07-.04-.176-.169-.258A4.895 4.895 0 013.102 6.41c0-1.663.83-3.133 2.095-4.017a1.21 1.21 0 011.366-.032c.377.241.62.675.62 1.162v2.301c0 .068.034.13.09.169l.612.416c.07.047.16.047.23 0l.612-.416a.204.204 0 00.09-.169v-2.3c0-.487.243-.92.62-1.162a1.21 1.21 0 011.366.032 4.893 4.893 0 012.095 4.017c0 1.74-.908 3.269-2.274 4.137-.129.082-.17.189-.169.258l.133 2.718a.612.612 0 11-1.223.06l-.134-2.73c-.022-.586.314-1.071.736-1.34a3.67 3.67 0 001.707-3.103 3.669 3.669 0 00-1.578-3.017c-.02.014-.055.055-.055.13v2.301c0 .473-.235.916-.626 1.182l-.612.416a1.429 1.429 0 01-1.606 0l-.612-.416a1.429 1.429 0 01-.626-1.182V3.524c0-.075-.035-.116-.055-.13zm.009-.004z"/></svg>
